X: 21222
M: 2/4
L: 1/16
K: D
V: 1 name="2"
de |\
fefe gfed | e^de=d fedc | B>AB>c d>ef>d | edBd A2de |\
fefe gfed | B2ge ceAc | defe d2 H|]


